X:450
T: Cange, 2)
N: C2068
O: China, Zhejiang Deqing
S: III, 612]
R: Xiaodiao]
M: 2/4
L: 1/16
K: F
A3cc2Ac | d6dc | A4d4 | cdcGA4
A2d2cdcA | G2FGA4 | A3cdcAG | F2G6
G3Ac4 | dcAGF2D2 | F3GFGFG | A2dcA2z2
A2dfd2cA | G3Ac2z2 | F3GA3c | cAG4FG | A2
z2GAGF | D2D2z2F2 | G2A2G4- | G4z4

